src/assets/img/unsorted/online.svg

<svg xmlns:xlink="http://www.w3.org/1999/xlink" height="12.55" width="22.8" xmlns="http://www.w3.org/2000/svg"><g transform="translate(13.25 6.65)"><use height="11.55" transform="translate(-8.35 -6.05)" width="17.9" xlink:href="#a"/><use height="12.55" transform="translate(-13.25 -6.65)" width="15.75" xlink:href="#b"/></g><defs><g id="a"><path d="m-4.2 4.85.05-.85q.05-1.85.8-3.9t2.05-3.6Q0-5.05 1.9-5.55l2.3.3q2 .85 3 2.75l1.5 3.65.35 3.7q-5.4.25-13.25 0" fill="#fff" fill-rule="evenodd" transform="translate(8.35 6.05)"/><path d="m9.05 4.85-.35-3.7L7.2-2.5q-1-1.9-3-2.75l-2.3-.3Q0-5.05-1.3-3.5-2.6-1.95-3.35.1q-.75 2.05-.8 3.9l-.05.85" fill="none" stroke="#337ccc" stroke-linecap="round" stroke-linejoin="round" transform="translate(8.35 6.05)"/><path d="m-7.85 5 .05-.85q.05-1.85.8-3.9t2.05-3.6q1.3-1.55 3.2-2.05l2.3.3q2 .85 3 2.75l1.5 3.65L5.4 5Q0 5.25-7.85 5" fill="#fff" fill-rule="evenodd" transform="translate(8.35 6.05)"/><path d="m5.4 5-.35-3.7-1.5-3.65q-1-1.9-3-2.75l-2.3-.3q-1.9.5-3.2 2.05Q-6.25-1.8-7 .25q-.75 2.05-.8 3.9l-.05.85" fill="none" stroke="#337ccc" stroke-linecap="round" stroke-linejoin="round" transform="translate(8.35 6.05)"/></g><g id="c"><path d="M2.05-2.65Q1.25-2.7.75-2 .2-1.35.2-.4v.15Q.25.6.75 1.2q.35.45.85.6l.45.05h.2l1.1-.65.4-.75.1-.85q0-.95-.5-1.6-.55-.7-1.3-.65.75-.05 1.3.65.5.65.5 1.6l-.1.85-.4.75-1.1.65h-.2L1.6 1.8q-.5-.15-.85-.6Q.25.6.2-.25V-.4q0-.95.55-1.6.5-.7 1.3-.65m.1 1.8L1.7-1.1l-.45.25-.15.65q0 .35.15.6l.45.2q.25 0 .45-.2l.2-.6-.2-.65M-7.4 5.8l.05-1q.05-2 .9-4.3t2.3-4q1.4-1.7 3.55-2.25l2.55.3q2.2.95 3.35 3.05l1.65 4.05q.3 1.1.4 4.15-6.05.25-14.75 0m9.05-2.85L.05 4-1.6 2.85.05 4l1.6-1.05m-4.95-4.9q-.55.65-.5 1.6l.1.85.4.75.8.55.5.1.75-.2.6-.45q.45-.65.5-1.5v-.1q0-.95-.5-1.6-.55-.7-1.35-.7-.75 0-1.3.7.55-.7 1.3-.7.8 0 1.35.7.5.65.5 1.6v.1q-.05.85-.5 1.5l-.6.45-.75.2-.5-.1-.8-.55-.4-.75-.1-.85q-.05-.95.5-1.6M-2.2-.2l.15.6.45.2.45-.2.2-.6-.2-.65-.45-.25q-.2.15-.45.25l-.15.65" fill="#fff" fill-rule="evenodd" transform="translate(7.9 6.25)"/><path d="m2.15-.85.2.65-.2.6q-.2.2-.45.2L1.25.4Q1.1.15 1.1-.2l.15-.65.45-.25.45.25M-2.2-.2l.15-.65q.25-.1.45-.25l.45.25.2.65-.2.6-.45.2-.45-.2-.15-.6" fill-rule="evenodd" transform="translate(7.9 6.25)"/><path d="M7.35 5.8q-.1-3.05-.4-4.15L5.3-2.4Q4.15-4.5 1.95-5.45l-2.55-.3q-2.15.55-3.55 2.25-1.45 1.7-2.3 4-.85 2.3-.9 4.3l-.05 1m5.8-2.95L.05 4l1.6-1.05" fill="none" stroke="#337ccc" stroke-linecap="round" stroke-linejoin="round" transform="translate(7.9 6.25)"/><path d="M9.95 3.6q.75-.05 1.3.65.5.65.5 1.6l-.1.85-.4.75-1.1.65h-.2l-.45-.05q-.5-.15-.85-.6-.5-.6-.55-1.45v-.15q0-.95.55-1.6.5-.7 1.3-.65m-5.35.7q.55-.7 1.3-.7.8 0 1.35.7.5.65.5 1.6V6q-.05.85-.5 1.5l-.6.45-.75.2-.5-.1-.8-.55-.4-.75-.1-.85q-.05-.95.5-1.6" fill="none" stroke="#999" stroke-linecap="round" stroke-linejoin="round" stroke-width=".05"/></g><use height="12.55" width="15.75" xlink:href="#c" id="b"/></defs></svg>

<?xml version="1.0" encoding="UTF-8" standalone="no"?>
<svg xmlns:xlink="http://www.w3.org/1999/xlink" height="12.55px" width="22.8px" xmlns="http://www.w3.org/2000/svg">
  <g transform="matrix(1.0, 0.0, 0.0, 1.0, 13.25, 6.65)">
    <use height="11.55" transform="matrix(1.0, 0.0, 0.0, 1.0, -8.35, -6.05)" width="17.9" xlink:href="#shape0"/>
    <use height="12.55" transform="matrix(1.0, 0.0, 0.0, 1.0, -13.25, -6.65)" width="15.75" xlink:href="#sprite0"/>
  </g>
  <defs>
    <g id="shape0" transform="matrix(1.0, 0.0, 0.0, 1.0, 8.35, 6.05)">
      <path d="M-4.2 4.85 L-4.15 4.0 Q-4.1 2.15 -3.35 0.1 -2.6 -1.95 -1.3 -3.5 0.0 -5.05 1.9 -5.55 L4.2 -5.25 Q6.2 -4.4 7.2 -2.5 L8.7 1.15 9.05 4.85 Q3.65 5.1 -4.2 4.85" fill="#ffffff" fill-rule="evenodd" stroke="none"/>
      <path d="M9.05 4.85 L8.7 1.15 7.2 -2.5 Q6.2 -4.4 4.2 -5.25 L1.9 -5.55 Q0.0 -5.05 -1.3 -3.5 -2.6 -1.95 -3.35 0.1 -4.1 2.15 -4.15 4.0 L-4.2 4.85" fill="none" stroke="#337ccc" stroke-linecap="round" stroke-linejoin="round" stroke-width="1.0"/>
      <path d="M-7.85 5.0 L-7.8 4.15 Q-7.75 2.3 -7.0 0.25 -6.25 -1.8 -4.95 -3.35 -3.65 -4.9 -1.75 -5.4 L0.55 -5.1 Q2.55 -4.25 3.55 -2.35 L5.05 1.3 5.4 5.0 Q0.0 5.25 -7.85 5.0" fill="#ffffff" fill-rule="evenodd" stroke="none"/>
      <path d="M5.4 5.0 L5.05 1.3 3.55 -2.35 Q2.55 -4.25 0.55 -5.1 L-1.75 -5.4 Q-3.65 -4.9 -4.95 -3.35 -6.25 -1.8 -7.0 0.25 -7.75 2.3 -7.8 4.15 L-7.85 5.0" fill="none" stroke="#337ccc" stroke-linecap="round" stroke-linejoin="round" stroke-width="1.0"/>
    </g>
    <g id="sprite0" transform="matrix(1.0, 0.0, 0.0, 1.0, 7.9, 6.25)">
      <use height="12.55" transform="matrix(1.0, 0.0, 0.0, 1.0, -7.9, -6.25)" width="15.75" xlink:href="#shape1"/>
    </g>
    <g id="shape1" transform="matrix(1.0, 0.0, 0.0, 1.0, 7.9, 6.25)">
      <path d="M2.05 -2.65 Q1.25 -2.7 0.75 -2.0 0.2 -1.35 0.2 -0.4 L0.2 -0.25 Q0.25 0.6 0.75 1.2 1.1 1.65 1.6 1.8 L2.05 1.85 2.25 1.85 3.35 1.2 3.75 0.45 3.85 -0.4 Q3.85 -1.35 3.35 -2.0 2.8 -2.7 2.05 -2.65 2.8 -2.7 3.35 -2.0 3.85 -1.35 3.85 -0.4 L3.75 0.45 3.35 1.2 2.25 1.85 2.05 1.85 1.6 1.8 Q1.1 1.65 0.75 1.2 0.25 0.6 0.2 -0.25 L0.2 -0.4 Q0.2 -1.35 0.75 -2.0 1.25 -2.7 2.05 -2.65 M2.15 -0.85 L1.7 -1.1 1.25 -0.85 1.1 -0.2 Q1.1 0.15 1.25 0.4 L1.7 0.6 Q1.95 0.6 2.15 0.4 L2.35 -0.2 2.15 -0.85 M-7.4 5.8 L-7.35 4.8 Q-7.3 2.8 -6.45 0.5 -5.6 -1.8 -4.15 -3.5 -2.75 -5.2 -0.6 -5.75 L1.95 -5.45 Q4.15 -4.5 5.3 -2.4 L6.95 1.65 Q7.25 2.75 7.35 5.8 1.3 6.05 -7.4 5.8 M1.65 2.95 L0.05 4.0 -1.6 2.85 0.05 4.0 1.65 2.95 M-3.3 -1.95 Q-3.85 -1.3 -3.8 -0.35 L-3.7 0.5 -3.3 1.25 -2.5 1.8 -2.0 1.9 -1.25 1.7 -0.65 1.25 Q-0.2 0.6 -0.15 -0.25 L-0.15 -0.35 Q-0.15 -1.3 -0.65 -1.95 -1.2 -2.65 -2.0 -2.65 -2.75 -2.65 -3.3 -1.95 -2.75 -2.65 -2.0 -2.65 -1.2 -2.65 -0.65 -1.95 -0.15 -1.3 -0.15 -0.35 L-0.15 -0.25 Q-0.2 0.6 -0.65 1.25 L-1.25 1.7 -2.0 1.9 -2.5 1.8 -3.3 1.25 -3.7 0.5 -3.8 -0.35 Q-3.85 -1.3 -3.3 -1.95 M-2.2 -0.2 L-2.05 0.4 -1.6 0.6 -1.15 0.4 -0.95 -0.2 -1.15 -0.85 -1.6 -1.1 Q-1.8 -0.95 -2.05 -0.85 L-2.2 -0.2" fill="#ffffff" fill-rule="evenodd" stroke="none"/>
      <path d="M2.15 -0.85 L2.35 -0.2 2.15 0.4 Q1.95 0.6 1.7 0.6 L1.25 0.4 Q1.1 0.15 1.1 -0.2 L1.25 -0.85 1.7 -1.1 2.15 -0.85 M-2.2 -0.2 L-2.05 -0.85 Q-1.8 -0.95 -1.6 -1.1 L-1.15 -0.85 -0.95 -0.2 -1.15 0.4 -1.6 0.6 -2.05 0.4 -2.2 -0.2" fill="#000000" fill-rule="evenodd" stroke="none"/>
      <path d="M7.35 5.8 Q7.25 2.75 6.95 1.65 L5.3 -2.4 Q4.15 -4.5 1.95 -5.45 L-0.6 -5.75 Q-2.75 -5.2 -4.15 -3.5 -5.6 -1.8 -6.45 0.5 -7.3 2.8 -7.35 4.8 L-7.4 5.8 M-1.6 2.85 L0.05 4.0 1.65 2.95" fill="none" stroke="#337ccc" stroke-linecap="round" stroke-linejoin="round" stroke-width="1.0"/>
      <path d="M2.05 -2.65 Q2.8 -2.7 3.35 -2.0 3.85 -1.35 3.85 -0.4 L3.75 0.45 3.35 1.2 2.25 1.85 2.05 1.85 1.6 1.8 Q1.1 1.65 0.75 1.2 0.25 0.6 0.2 -0.25 L0.2 -0.4 Q0.2 -1.35 0.75 -2.0 1.25 -2.7 2.05 -2.65 M-3.3 -1.95 Q-2.75 -2.65 -2.0 -2.65 -1.2 -2.65 -0.65 -1.95 -0.15 -1.3 -0.15 -0.35 L-0.15 -0.25 Q-0.2 0.6 -0.65 1.25 L-1.25 1.7 -2.0 1.9 -2.5 1.8 -3.3 1.25 -3.7 0.5 -3.8 -0.35 Q-3.85 -1.3 -3.3 -1.95" fill="none" stroke="#999999" stroke-linecap="round" stroke-linejoin="round" stroke-width="0.05"/>
    </g>
  </defs>
</svg>
